src/svg/resizeeastwest.svg

<?xml version="1.0" encoding="UTF-8" standalone="no"?>
<svg width="35px" height="35px" viewBox="0 0 35 35" version="1.1" xmlns="http://www.w3.org/2000/svg" xmlns:xlink="http://www.w3.org/1999/xlink">
    <defs></defs>
    <g id="Page-1" stroke="none" stroke-width="1" fill="none" fill-rule="evenodd">
        <g id="resizeeastwest">
            <g id="bg-copy" fill="#FFFFFF" opacity="0.00999999978">
                <rect id="bg" x="0" y="0" width="35" height="35"></rect>
            </g>
            <path d="M9,17.9907 L9,17.9957 L14.997,23.9917 L14.998,19.9927 L16.997,19.9927 L19.017,19.9927 L19.017,23.9927 L24.997,17.9917 L19.017,11.9927 L19.018,16.0117 L16.997,16.0137 L14.997,16.0137 L14.998,11.9917 L9,17.9907 Z M10.411,17.9937 L13.998,14.4057 L13.997,16.9927 L17.497,16.9927 L20.018,16.9927 L20.018,14.4077 L23.583,17.9937 L20.019,21.5787 L20.018,18.9937 L17.497,18.9937 L13.998,18.9927 L13.997,21.5787 L10.411,17.9937 Z" id="resize-border" fill="#FFFFFF"></path>
            <path d="M17.4971,18.9932 L20.0181,18.9932 L20.0181,21.5792 L23.5831,17.9932 L20.0181,14.4082 L20.0181,17.0132 L17.4971,17.0132 L13.9971,17.0132 L13.9971,14.4062 L10.4111,17.9932 L13.9971,21.5792 L13.9971,18.9922 L17.4971,18.9932 Z" id="resize" fill="#000000"></path>
        </g>
    </g>
</svg>

<svg height="35" viewBox="0 0 35 35" width="35" xmlns="http://www.w3.org/2000/svg"><g fill="none" fill-rule="evenodd"><path d="m9 17.9907v.005l5.997 5.996.001-3.999h1.999 2.02v4l5.98-6.001-5.98-5.999.001 4.019-2.021.002h-2l.001-4.022zm1.411.003 3.587-3.588-.001 2.587h3.5 2.521v-2.585l3.565 3.586-3.564 3.585-.001-2.585h-2.521l-3.499-.001-.001 2.586z" fill="#fff"/><path d="m17.4971 18.9932h2.521v2.586l3.565-3.586-3.565-3.585v2.605h-2.521-3.5v-2.607l-3.586 3.587 3.586 3.586v-2.587z" fill="#000"/></g></svg>
